X: 11
T:Gilla Machree (#191)
M:9/8
L:1/8
S:Capt. F. O'Neill
K:G
G2 G G2 B dBG|E2 A ABG FED|1G2 G G2 A Bcd|efg agf g2 z:|
2G3 GFG Bcd|efg agf g2||:d|gag gfe dcB|A2 A ABG FED|
1gag gfe dBd|efg agf g2:|2gag bag afd|efg agf g2z||

